X:127
T:Slieve Russell
R:jig
Z:Transcribed by Dave Marshall
M:6/8
K:A Dorian
|:eAA Bcd|eaf ged|edB cBA|BAG Bcd|
eAA Bcd|eaf ged|edB cBA|BAG A3:|
|:eaa efg|agf ged|eaa efg|fed g2f|
eaa efg|agf ged|edB cBA|BAG A3:|
